X: 32582
T: Planxty Joe Burke
R: hornpipe
M: 4/4
K: Gmajor
|:DC|B,CDE DGFG|CGFG B,GFG|G,A,B,C DGFG|cBAG FdcA|
BABc dGFG|CGFG B,GFG|CDFG BAGF|GDB,D G,2:|
|:dc|BcdB edcB|ABcA dcBA|GABG cBAG|^cdAF D=cBA|
G2BG DGB,D|C2EC DGB,D|CDFG BAGF|GDB,D G,2:|

